SeaMapSymbols/Top_Can_Red_White_Red_Beacon.svg

<?xml version="1.0" encoding="UTF-8" standalone="no"?>
<svg
   xmlns:dc="http://purl.org/dc/elements/1.1/"
   xmlns:cc="http://creativecommons.org/ns#"
   xmlns:rdf="http://www.w3.org/1999/02/22-rdf-syntax-ns#"
   xmlns:svg="http://www.w3.org/2000/svg"
   xmlns="http://www.w3.org/2000/svg"
   xmlns:sodipodi="http://sodipodi.sourceforge.net/DTD/sodipodi-0.dtd"
   xmlns:inkscape="http://www.inkscape.org/namespaces/inkscape"
   version="1.0"
   width="320"
   height="320"
   id="svg2"
   sodipodi:version="0.32"
   inkscape:version="0.48.2 r9819"
   sodipodi:docname="Top_Can_Red_White_Red_Beacon.svg"
   inkscape:output_extension="org.inkscape.output.svg.inkscape">
  <metadata
     id="metadata7">
    <rdf:RDF>
      <cc:Work
         rdf:about="">
        <dc:format>image/svg+xml</dc:format>
        <dc:type
           rdf:resource="http://purl.org/dc/dcmitype/StillImage" />
      </cc:Work>
    </rdf:RDF>
  </metadata>
  <sodipodi:namedview
     inkscape:window-height="843"
     inkscape:window-width="1440"
     inkscape:pageshadow="2"
     inkscape:pageopacity="0.0"
     guidetolerance="10.0"
     gridtolerance="10.0"
     objecttolerance="10.0"
     borderopacity="1.0"
     bordercolor="#666666"
     pagecolor="#ffffff"
     id="base"
     showgrid="false"
     inkscape:zoom="2.3422912"
     inkscape:cx="160"
     inkscape:cy="168.59718"
     inkscape:window-x="0"
     inkscape:window-y="0"
     inkscape:current-layer="svg2"
     inkscape:window-maximized="0" />
  <defs
     id="defs4" />
  <path
     d="M 186.03125,69.96875 L 185.65625,105.03125 L 214,105.03125 L 214,69.96875 L 186.03125,69.96875 z"
     id="path2520"
     style="fill: rgb(0, 4, 7); fill-opacity: 1; fill-rule: evenodd; stroke: none;"
     transform="translate(-40, -40)"
     sodipodi:nodetypes="ccccc" />
  <path
     style="fill:#d40000;fill-opacity:1;fill-rule:evenodd;stroke:#000000;stroke-width:0.60377359;stroke-opacity:1"
     d="M 146.23396,47.396226 L 146.23396,30.188679 L 160.12075,30.188679 L 174.00755,30.188679 L 174.00755,47.396226 L 174.00755,64.603774 L 160.12075,64.603774 L 146.23396,64.603774 L 146.23396,47.396226 z"
     id="path2382" />
  <path
     style="fill:none;fill-rule:evenodd;stroke:#ffffff;stroke-width:1px;stroke-linecap:butt;stroke-linejoin:miter;stroke-opacity:1"
     d="M 146.18868,43.320754 L 173.88679,43.169811 L 173.88679,43.169811 L 173.88679,43.169811"
     id="path2381" />
  <path
     style="fill:none;fill-rule:evenodd;stroke:#ffffff;stroke-width:1px;stroke-linecap:butt;stroke-linejoin:miter;stroke-opacity:1"
     d="M 146.26415,51.245283 L 173.88679,51.094339"
     id="path2383" />
  <path
     style="opacity:1;fill:#ffffff;fill-opacity:1;fill-rule:evenodd;stroke:#ffffff;stroke-width:0.0754717;stroke-miterlimit:4;stroke-dasharray:none;stroke-opacity:1"
     d="M 146.55094,47.29198 L 146.55094,43.858546 L 155.89057,43.811746 C 161.02736,43.786001 167.12358,43.744235 169.43774,43.71893 L 173.64528,43.672921 L 173.64528,47.105847 L 173.64528,50.538773 L 167.73962,50.585257 C 164.49151,50.610823 158.39528,50.652816 154.19245,50.678574 L 146.55094,50.725407 L 146.55094,47.29198 z"
     id="path2385" />
  <path
     style="fill:none;stroke:#000000;stroke-width:2.8948102px;stroke-linecap:butt;stroke-linejoin:miter;stroke-opacity:1"
     d="m 160.52658,65.337798 0,20.05987"
     id="path2440" />
</svg>

<?xml version="1.0" encoding="UTF-8" standalone="no"?>
<svg id="svg2" xmlns:rdf="http://www.w3.org/1999/02/22-rdf-syntax-ns#" xmlns="http://www.w3.org/2000/svg" height="320" width="320" version="1.0" xmlns:cc="http://creativecommons.org/ns#" xmlns:dc="http://purl.org/dc/elements/1.1/">
 <metadata id="metadata7">
  <rdf:RDF>
   <cc:Work rdf:about="">
    <dc:format>image/svg+xml</dc:format>
    <dc:type rdf:resource="http://purl.org/dc/dcmitype/StillImage"/>
   </cc:Work>
  </rdf:RDF>
 </metadata>
 <path id="path2520" d="m186.03 69.969l-0.37 35.061h28.34v-35.061h-27.97z" fill-rule="evenodd" transform="translate(-40 -40)" fill="#000407"/>
 <path id="path2382" d="m146.23 47.396v-17.207h13.89 13.89v17.207 17.208h-13.89-13.89v-17.208z" fill-rule="evenodd" stroke="#000" stroke-width=".60377" fill="#d40000"/>
 <path id="path2381" d="m146.19 43.321l27.7-0.151" stroke="#fff" stroke-width="1px" fill="none"/>
 <path id="path2383" d="m146.26 51.245l27.63-0.151" stroke="#fff" stroke-width="1px" fill="none"/>
 <path id="path2385" d="m146.55 47.292v-3.433l9.34-0.047c5.14-0.026 11.23-0.068 13.55-0.093l4.21-0.046v3.433 3.433l-5.91 0.046c-3.25 0.026-9.34 0.068-13.55 0.094l-7.64 0.046v-3.433z" fill-rule="evenodd" stroke="#fff" stroke-width=".075472" fill="#fff"/>
 <path id="path2440" d="m160.53 65.338v20.06" stroke="#000" stroke-width="2.8948px" fill="none"/>
</svg>
